X: 7
T: Contradiction, The
C: William Marshall, Gordon Duncan
Z: John E Roche
S: https://thesession.org/tunes/196#setting52970
R: reel
M: 4/4
L: 1/8
K: Gmaj
|:~B3G AFDC|B,DGB cedc|(3Bcd BG FGAB|1 cdef gedc:|2 cdef gGGf||
gG (3GGG BGAG|FADA FADf|gG G/G/G BGAG|FADc BG (3Bcd|
gG (3GGG BGAG|FADA FADz|gfed edcB|cdef gdef||
|:gdbd gdbd|adc'd adc'd|bdd'd bdd'd|1 c'bag dggd:|2 c'bag dggc||
Bd (3ddd BGBd|cABG AD (3DDD|Bd (3ddd BGBd|(3efg fa gedc|
Bd (3ddd gd (3Bcd| egdB A2 ze |dBdg eceg|fdef g2||

%-------------------- TUNE SEPARATOR --------------------%

